app/assets/images/features/events/de/yv-logo-gray.svg

<?xml version="1.0" encoding="UTF-8" standalone="no"?>
<svg width="109px" height="33px" viewBox="0 0 109 33" version="1.1" xmlns="http://www.w3.org/2000/svg" xmlns:xlink="http://www.w3.org/1999/xlink">
    <!-- Generator: Sketch 3.8.3 (29802) - http://www.bohemiancoding.com/sketch -->
    <title>yv logo german dark copy</title>
    <desc>Created with Sketch.</desc>
    <defs></defs>
    <g id="yv-events-english" stroke="none" stroke-width="1" fill="none" fill-rule="evenodd">
        <g id="yv-logo-german-dark-copy" fill="#636363">
            <path d="M8.35800033,28.035 L9.12800033,28.035 L11.1580003,23.1 L10.2270003,23.1 L8.75700033,26.866 L7.28000033,23.1 L6.32800033,23.1 L8.35800033,28.035 Z M13.7980003,28 L17.4660003,28 L17.4660003,27.23 L14.6590003,27.23 L14.6590003,25.921 L17.1160003,25.921 L17.1160003,25.144 L14.6590003,25.144 L14.6590003,23.87 L17.4310003,23.87 L17.4310003,23.1 L13.7980003,23.1 L13.7980003,28 Z M20.2880002,28 L21.1490002,28 L21.1490002,26.292 L22.2270002,26.292 L23.4310002,28 L24.4530002,28 L23.1300002,26.145 C23.8090002,25.949 24.2920002,25.466 24.2920002,24.661 L24.2920002,24.647 C24.2920002,24.22 24.1450002,23.856 23.8860002,23.59 C23.5710002,23.282 23.0880002,23.1 22.4720002,23.1 L20.2880002,23.1 L20.2880002,28 Z M21.1490002,25.529 L21.1490002,23.884 L22.4020002,23.884 C23.0390002,23.884 23.4170002,24.171 23.4170002,24.696 L23.4170002,24.71 C23.4170002,25.207 23.0250002,25.529 22.4090002,25.529 L21.1490002,25.529 Z M26.7290002,28 L27.6110002,28 L28.1150002,26.817 L30.4320002,26.817 L30.9290002,28 L31.8390002,28 L29.6830002,23.065 L28.8850002,23.065 L26.7290002,28 Z M28.4300002,26.054 L29.2700002,24.094 L30.1170002,26.054 L28.4300002,26.054 Z M34.4790001,28 L35.3260001,28 L35.3260001,24.514 L38.0280001,28 L38.7490001,28 L38.7490001,23.1 L37.9020001,23.1 L37.9020001,26.488 L35.2770001,23.1 L34.4790001,23.1 L34.4790001,28 Z M43.5240001,28.07 C44.5530001,28.07 45.2740001,27.524 45.2740001,26.607 L45.2740001,26.593 C45.2740001,25.781 44.7420001,25.41 43.7060001,25.158 C42.7610001,24.934 42.5370001,24.766 42.5370001,24.388 L42.5370001,24.374 C42.5370001,24.052 42.8310001,23.793 43.3350001,23.793 C43.7830001,23.793 44.2240001,23.968 44.6650001,24.297 L45.1270001,23.646 C44.6300001,23.247 44.0630001,23.03 43.3490001,23.03 C42.3760001,23.03 41.6760001,23.611 41.6760001,24.451 L41.6760001,24.465 C41.6760001,25.368 42.2640001,25.676 43.3070001,25.928 C44.2170001,26.138 44.4130001,26.327 44.4130001,26.677 L44.4130001,26.691 C44.4130001,27.055 44.0770001,27.307 43.5450001,27.307 C42.9430001,27.307 42.4670001,27.076 41.9980001,26.67 L41.4800001,27.286 C42.0680001,27.811 42.7750001,28.07 43.5240001,28.07 L43.5240001,28.07 Z M49.188,28 L50.049,28 L50.049,23.898 L51.61,23.898 L51.61,23.1 L47.627,23.1 L47.627,23.898 L49.188,23.898 L49.188,28 Z M53.263,28 L54.145,28 L54.649,26.817 L56.966,26.817 L57.463,28 L58.373,28 L56.217,23.065 L55.419,23.065 L53.263,28 Z M54.964,26.054 L55.804,24.094 L56.651,26.054 L54.964,26.054 Z M61.013,28 L64.45,28 L64.45,27.216 L61.874,27.216 L61.874,23.1 L61.013,23.1 L61.013,28 Z M67.6569999,28 L68.5179999,28 L68.5179999,23.898 L70.0789999,23.898 L70.0789999,23.1 L66.0959999,23.1 L66.0959999,23.898 L67.6569999,23.898 L67.6569999,28 Z M74.7839999,28.077 C76.0649999,28.077 76.8909999,27.342 76.8909999,25.879 L76.8909999,23.1 L76.0299999,23.1 L76.0299999,25.921 C76.0299999,26.824 75.5609999,27.279 74.7979999,27.279 C74.0279999,27.279 73.5589999,26.796 73.5589999,25.886 L73.5589999,23.1 L72.6979999,23.1 L72.6979999,25.921 C72.6979999,27.342 73.5099999,28.077 74.7839999,28.077 L74.7839999,28.077 Z M79.8739998,28 L80.7209998,28 L80.7209998,24.514 L83.4229998,28 L84.1439998,28 L84.1439998,23.1 L83.2969998,23.1 L83.2969998,26.488 L80.6719998,23.1 L79.8739998,23.1 L79.8739998,28 Z M89.5279998,28.084 C90.3959998,28.084 91.0889998,27.734 91.5719998,27.321 L91.5719998,25.263 L89.4859998,25.263 L89.4859998,26.019 L90.7389998,26.019 L90.7389998,26.929 C90.4379998,27.153 90.0179998,27.3 89.5559998,27.3 C88.5549998,27.3 87.8899998,26.558 87.8899998,25.55 L87.8899998,25.536 C87.8899998,24.598 88.5759998,23.814 89.4789998,23.814 C90.1019998,23.814 90.4729998,24.017 90.8509998,24.332 L91.3969998,23.681 C90.8929998,23.254 90.3679998,23.016 89.5139998,23.016 C88.0369998,23.016 86.9869998,24.178 86.9869998,25.55 L86.9869998,25.564 C86.9869998,26.992 87.9949998,28.084 89.5279998,28.084 L89.5279998,28.084 Z M94.4919997,28 L98.1599997,28 L98.1599997,27.23 L95.3529997,27.23 L95.3529997,25.921 L97.8099997,25.921 L97.8099997,25.144 L95.3529997,25.144 L95.3529997,23.87 L98.1249997,23.87 L98.1249997,23.1 L94.4919997,23.1 L94.4919997,28 Z M100.982,28 L101.829,28 L101.829,24.514 L104.531,28 L105.252,28 L105.252,23.1 L104.405,23.1 L104.405,26.488 L101.78,23.1 L100.982,23.1 L100.982,28 Z" id="VERANSTALTUNGEN"></path>
            <polygon id="Fill-1" points="11.31856 0.805784615 7.16041185 7.42075897 3.04465259 0.805784615 -8.07407405e-05 0.805784615 5.83747481 9.85398974 5.83747481 15.744041 8.44176741 15.744041 8.44176741 9.78998974 14.279323 0.805784615"></polygon>
            <path d="M17.9328819,6.50358974 C15.895793,6.50358974 14.5938485,8.12533333 14.5938485,10.1101538 C14.5938485,12.1163077 16.0011596,13.7593846 17.974867,13.7593846 C20.0329485,13.7593846 21.334893,12.1372308 21.334893,10.1528205 C21.334893,8.14666667 19.9275819,6.50358974 17.9328819,6.50358974 M17.9328819,15.9997949 C14.5518633,15.9997949 12.0533411,13.3753846 12.0533411,10.1528205 C12.0533411,6.90892308 14.5732596,4.2414359 17.974867,4.2414359 C21.3768781,4.2414359 23.8758041,6.86625641 23.8758041,10.1101538 C23.8758041,13.3327179 21.3558856,15.9997949 17.9328819,15.9997949" id="Fill-2"></path>
            <path d="M32.9054044,4.47634872 L35.4463156,4.47634872 L35.4463156,15.744041 L32.9054044,15.744041 L32.9054044,13.9938872 C32.1912526,15.0609641 31.1626156,15.9787077 29.4404156,15.9787077 C26.9418933,15.9787077 25.492597,14.2716308 25.492597,11.6468103 L25.492597,4.47634872 L28.0335081,4.47634872 L28.0335081,10.8779897 C28.0335081,12.6281436 28.8942044,13.6312205 30.4068822,13.6312205 C31.8763637,13.6312205 32.9054044,12.5858872 32.9054044,10.8357333 L32.9054044,4.47634872 Z" id="Fill-4"></path>
            <polygon id="Fill-6" points="48.5288185 0.805702564 51.3216407 0.805702564 45.2107778 15.8506256 42.9427704 15.8506256 36.8319074 0.805702564 39.6881111 0.805702564 44.1187593 12.2867282"></polygon>
            <path d="M58.5665881,9.32049231 C58.3982437,7.65567179 57.4321807,6.35433846 55.7523696,6.35433846 C54.1985141,6.35433846 53.1068993,7.57033846 52.875577,9.32049231 L58.5665881,9.32049231 Z M56.0882511,13.8874667 C57.3276215,13.8874667 58.2093104,13.4177231 59.091403,12.5426462 L60.5822807,13.8874667 C59.5326511,15.1678769 58.0833548,15.9998769 56.0466696,15.9998769 C52.8335919,15.9998769 50.3556585,13.6314667 50.3556585,10.1315692 C50.3556585,6.88767179 52.6026733,4.24151795 55.7733622,4.24151795 C59.3013289,4.24151795 61.086103,7.05833846 61.086103,10.3235692 C61.086103,10.5582359 61.0651104,10.7715692 61.0445215,11.0275692 L52.8965696,11.0275692 C53.1908696,12.8630564 54.4508289,13.8874667 56.0882511,13.8874667 L56.0882511,13.8874667 Z" id="Fill-8"></path>
            <path d="M65.3487296,15.744 L62.8078185,15.744 L62.8078185,4.47630769 L65.3487296,4.47630769 L65.3487296,7.01579487 C66.0418889,5.32964103 67.3228407,4.17764103 69.2759593,4.26297436 L69.2759593,6.99446154 L69.1286074,6.99446154 C66.9029889,6.99446154 65.3487296,8.46687179 65.3487296,11.4547692 L65.3487296,15.744 Z" id="Fill-10"></path>
            <path d="M74.8614019,15.9575385 C73.2865537,15.9575385 71.5433611,15.3811282 70.15785,14.2717949 L71.29145,12.521641 C72.4884315,13.4389744 73.7903759,13.9087179 74.9243796,13.9087179 C76.0163981,13.9087179 76.6465796,13.4389744 76.6465796,12.6923077 L76.6465796,12.649641 C76.6465796,11.7749744 75.4705907,11.4758974 74.1682426,11.0705641 C72.5308204,10.6008205 70.7032537,9.91774359 70.7032537,7.76266667 L70.7032537,7.72 C70.7032537,5.58625641 72.4464463,4.28410256 74.6510722,4.28410256 C76.0373907,4.28410256 77.5492611,4.77476923 78.72525,5.56451282 L77.7172019,7.4 C76.6465796,6.73825641 75.5121722,6.33292308 74.5884981,6.33292308 C73.6014426,6.33292308 73.0346426,6.80266667 73.0346426,7.464 L73.0346426,7.50625641 C73.0346426,8.31774359 74.2312204,8.65907692 75.5335685,9.08574359 C77.1504019,9.59774359 78.9771611,10.3448205 78.9771611,12.3723077 L78.9771611,12.4149744 C78.9771611,14.7837949 77.1713944,15.9575385 74.8614019,15.9575385" id="Fill-12"></path>
            <path d="M80.8666963,4.47630769 L83.4076074,4.47630769 L83.4076074,15.744 L80.8666963,15.744 L80.8666963,4.47630769 Z M80.762137,0.29374359 L83.4923852,0.29374359 L83.4923852,2.74748718 L80.762137,2.74748718 L80.762137,0.29374359 Z" id="Fill-14"></path>
            <path d="M91.1566193,6.50358974 C89.1195304,6.50358974 87.8175859,8.12533333 87.8175859,10.1101538 C87.8175859,12.1163077 89.224897,13.7593846 91.1986044,13.7593846 C93.2566859,13.7593846 94.5586304,12.1372308 94.5586304,10.1528205 C94.5586304,8.14666667 93.1513193,6.50358974 91.1566193,6.50358974 M91.1566193,15.9997949 C87.7756007,15.9997949 85.2770785,13.3753846 85.2770785,10.1528205 C85.2770785,6.90892308 87.796997,4.2414359 91.1986044,4.2414359 C94.6006156,4.2414359 97.0995415,6.86625641 97.0995415,10.1101538 C97.0995415,13.3327179 94.579623,15.9997949 91.1566193,15.9997949" id="Fill-16"></path>
            <path d="M101.383241,15.744 L98.8419267,15.744 L98.8419267,4.47630769 L101.383241,4.47630769 L101.383241,6.22646154 C102.097393,5.15897436 103.12603,4.24164103 104.847827,4.24164103 C107.346753,4.24164103 108.795645,5.94871795 108.795645,8.57353846 L108.795645,15.744 L106.254734,15.744 L106.254734,9.34194872 C106.254734,7.59220513 105.394038,6.58912821 103.881764,6.58912821 C102.412282,6.58912821 101.383241,7.63446154 101.383241,9.38461538 L101.383241,15.744 Z" id="Fill-17"></path>
        </g>
    </g>
</svg>

<svg viewBox="0 0 109 33" xmlns="http://www.w3.org/2000/svg"><g fill="#636363" fill-rule="evenodd"><path d="m8.358 28.04h.77l2.03-4.935h-.931l-1.47 3.766-1.477-3.766h-.952l2.03 4.935m5.44-.035h3.668v-.77h-2.807v-1.309h2.457v-.777h-2.457v-1.274h2.772v-.77h-3.633v4.9m6.49 0h.861v-1.708h1.078l1.204 1.708h1.022l-1.323-1.855c.679-.196 1.162-.679 1.162-1.484v-.014c0-.427-.147-.791-.406-1.057-.315-.308-.798-.49-1.414-.49h-2.184v4.9m.861-2.471v-1.645h1.253c.637 0 1.015.287 1.015.812v.014c0 .497-.392.819-1.01.819h-1.26m5.58 2.471h.882l.504-1.183h2.317l.497 1.183h.91l-2.156-4.935h-.798l-2.156 4.935m1.701-1.946l.84-1.96.847 1.96h-1.687m6.05 1.946h.847v-3.486l2.702 3.486h.721v-4.9h-.847v3.388l-2.625-3.388h-.798v4.9m9.05.07c1.029 0 1.75-.546 1.75-1.463v-.014c0-.812-.532-1.183-1.568-1.435-.945-.224-1.169-.392-1.169-.77v-.014c0-.322.294-.581.798-.581.448 0 .889.175 1.33.504l.462-.651c-.497-.399-1.064-.616-1.778-.616-.973 0-1.673.581-1.673 1.421v.014c0 .903.588 1.211 1.631 1.463.91.21 1.106.399 1.106.749v.014c0 .364-.336.616-.868.616-.602 0-1.078-.231-1.547-.637l-.518.616c.588.525 1.295.784 2.044.784m5.664-.07h.861v-4.102h1.561v-.798h-3.983v.798h1.561v4.102m4.075 0h.882l.504-1.183h2.317l.497 1.183h.91l-2.156-4.935h-.798l-2.156 4.935m1.701-1.946l.84-1.96.847 1.96h-1.687m6.05 1.946h3.437v-.784h-2.576v-4.116h-.861v4.9m6.644 0h.861v-4.102h1.561v-.798h-3.983v.798h1.561v4.102m7.127.077c1.281 0 2.107-.735 2.107-2.198v-2.779h-.861v2.821c0 .903-.469 1.358-1.232 1.358-.77 0-1.239-.483-1.239-1.393v-2.786h-.861v2.821c0 1.421.812 2.156 2.086 2.156m5.09-.077h.847v-3.486l2.702 3.486h.721v-4.9h-.847v3.388l-2.625-3.388h-.798v4.9m9.654.084c.868 0 1.561-.35 2.044-.763v-2.058h-2.086v.756h1.253v.91c-.301.224-.721.371-1.183.371-1 0-1.666-.742-1.666-1.75v-.014c0-.938.686-1.722 1.589-1.722.623 0 .994.203 1.372.518l.546-.651c-.504-.427-1.029-.665-1.883-.665-1.477 0-2.527 1.162-2.527 2.534v.014c0 1.428 1.01 2.52 2.541 2.52m4.964-.084h3.668v-.77h-2.807v-1.309h2.457v-.777h-2.457v-1.274h2.772v-.77h-3.633v4.9m6.49 0h.847v-3.486l2.702 3.486h.721v-4.9h-.847v3.388l-2.625-3.388h-.798v4.9"/><path d="m11.319.806l-4.159 6.615-4.115-6.615h-3.045l5.837 9.05v5.89h2.605v-5.954l5.837-8.984z"/><path d="m17.933 6.504c-2.037 0-3.339 1.622-3.339 3.607 0 2.01 1.407 3.649 3.381 3.649 2.058 0 3.36-1.622 3.36-3.607 0-2.01-1.407-3.649-3.402-3.649m0 9.496c-3.381 0-5.88-2.624-5.88-5.847 0-3.244 2.52-5.911 5.922-5.911 3.402 0 5.901 2.625 5.901 5.869 0 3.223-2.52 5.89-5.943 5.89"/><path d="m32.905 4.476h2.541v11.268h-2.541v-1.75c-.714 1.067-1.743 1.985-3.465 1.985-2.499 0-3.948-1.707-3.948-4.332v-7.17h2.541v6.402c0 1.75.861 2.753 2.373 2.753 1.469 0 2.499-1.045 2.499-2.795v-6.359"/><path d="m48.529.806h2.791l-6.11 15.05h-2.267l-6.111-15.05h2.856l4.432 11.481z"/><path d="m58.57 9.32c-.168-1.665-1.134-2.966-2.814-2.966-1.554 0-2.645 1.216-2.877 2.966h5.691m-2.478 4.567c1.239 0 2.121-.47 3-1.345l1.491 1.345c-1.05 1.28-2.499 2.112-4.536 2.112-3.213 0-5.691-2.368-5.691-5.868 0-3.244 2.247-5.89 5.418-5.89 3.528 0 5.313 2.817 5.313 6.082 0 .235-.021.448-.042.704h-8.148c.294 1.835 1.554 2.86 3.192 2.86"/><path d="m65.35 15.744h-2.541v-11.268h2.541v2.539c.693-1.686 1.974-2.838 3.927-2.753v2.731h-.147c-2.226 0-3.78 1.472-3.78 4.46v4.289"/><path d="m74.861 15.958c-1.575 0-3.318-.576-4.704-1.686l1.134-1.75c1.197.917 2.499 1.387 3.633 1.387 1.092 0 1.722-.47 1.722-1.216v-.043c0-.875-1.176-1.174-2.478-1.579-1.637-.47-3.465-1.153-3.465-3.308v-.043c0-2.134 1.743-3.436 3.948-3.436 1.386 0 2.898.491 4.074 1.28l-1.01 1.835c-1.071-.662-2.205-1.067-3.129-1.067-.987 0-1.554.47-1.554 1.131v.042c0 .811 1.197 1.153 2.499 1.579 1.617.512 3.444 1.259 3.444 3.287v.043c0 2.369-1.806 3.543-4.116 3.543"/><path d="m80.87 4.476h2.541v11.268h-2.541v-11.268m-.105-4.183h2.73v2.454h-2.73v-2.454"/><path d="m91.16 6.504c-2.037 0-3.339 1.622-3.339 3.607 0 2.01 1.407 3.649 3.381 3.649 2.058 0 3.36-1.622 3.36-3.607 0-2.01-1.407-3.649-3.402-3.649m0 9.496c-3.381 0-5.88-2.624-5.88-5.847 0-3.244 2.52-5.911 5.922-5.911 3.402 0 5.901 2.625 5.901 5.869 0 3.223-2.52 5.89-5.943 5.89"/><path d="m101.38 15.744h-2.541v-11.268h2.541v1.75c.714-1.067 1.743-1.985 3.465-1.985 2.499 0 3.948 1.707 3.948 4.332v7.17h-2.541v-6.402c0-1.75-.861-2.753-2.373-2.753-1.469 0-2.499 1.045-2.499 2.795v6.359"/></g></svg>
